icons/op-book-edit-16.svg

<svg width="16" height="16" viewBox="0 0 16 16" fill="none" xmlns="http://www.w3.org/2000/svg">
<path fill-rule="evenodd" clip-rule="evenodd" d="M0 1.77778C0 1.34823 0.335786 1 0.75 1H5.00286C6.23012 1 7.31979 1.61142 8.00393 2.55665C8.68803 1.61146 9.77766 1 11.005 1H15.25C15.6642 1 16 1.34823 16 1.77778V8C16 8.42955 15.6642 8.77778 15.25 8.77778C14.8358 8.77778 14.5 8.42955 14.5 8V2.55556H11.005C9.76236 2.55556 8.755 3.60023 8.755 4.88889L8.75124 12.4825C8.8559 12.4145 8.9636 12.352 9.07391 12.2951C9.52844 12.061 10 12.4577 10 12.9841C10 13.3381 9.77509 13.6417 9.49134 13.8386C9.37015 13.9227 9.25628 14.0194 9.15165 14.1279L8.53033 14.7722C8.23744 15.0759 7.76256 15.0759 7.46967 14.7722L6.84835 14.1279C6.42639 13.6903 5.8541 13.4444 5.25736 13.4444H0.75C0.335786 13.4444 0 13.0962 0 12.6667V1.77778ZM7.255 7.22296L7.25124 12.4841C6.65854 12.0983 5.96836 11.8889 5.25736 11.8889H1.5V2.55556H5.00286C6.24466 2.55556 7.25167 3.59887 7.25285 4.88667L7.255 7.22296Z" fill="#24292F"/>
<path fill-rule="evenodd" clip-rule="evenodd" d="M14.4096 9.50385C14.6764 9.22711 15.1091 9.22711 15.3759 9.50385L15.7999 9.94351C16.0667 10.2202 16.0667 10.6689 15.7999 10.9457L12.4381 14.4319C12.356 14.5171 12.2543 14.5791 12.1426 14.6122L10.8733 14.9883C10.771 15.0186 10.661 14.989 10.5858 14.911C10.5106 14.833 10.4821 14.7189 10.5113 14.6129L10.8739 13.2965C10.9058 13.1807 10.9657 13.0753 11.0478 12.9901L14.4096 9.50385ZM14.9618 9.93334C14.9236 9.89381 14.8618 9.89381 14.8237 9.93334L14.3307 10.4446L14.8927 11.0274L15.3857 10.5162C15.4239 10.4766 15.4239 10.4125 15.3857 10.373L14.9618 9.93334Z" fill="#24292F"/>
</svg>

<svg xmlns="http://www.w3.org/2000/svg" width="16" height="16" viewBox="0 0 16 16"><path d="M0 1.778C0 1.348.336 1 .75 1h4.253c1.227 0 2.317.611 3.001 1.557C8.688 1.611 9.778 1 11.005 1h4.245c.414 0 .75.348.75.778V8c0 .43-.336.778-.75.778A.764.764 0 0 1 14.5 8V2.556h-3.495c-1.243 0-2.25 1.044-2.25 2.333l-.004 7.594c.105-.068.213-.131.323-.188.454-.234.926.163.926.689 0 .354-.225.658-.509.855-.121.084-.235.18-.339.289l-.622.644a.73.73 0 0 1-1.06 0l-.622-.644a2.209 2.209 0 0 0-1.591-.684H.75a.764.764 0 0 1-.75-.777Zm7.255 5.445-.002-2.336c-.001-1.288-1.008-2.331-2.25-2.331H1.5v9.333h3.757a3.65 3.65 0 0 1 1.994.595Z"/><path d="M14.41 9.504a.665.665 0 0 1 .966 0l.424.44a.727.727 0 0 1 0 1.002l-3.362 3.486a.68.68 0 0 1-.295.18l-1.27.376a.283.283 0 0 1-.287-.077.312.312 0 0 1-.075-.298l.363-1.316a.717.717 0 0 1 .174-.307Zm.552.429a.096.096 0 0 0-.138 0l-.493.512.562.582.493-.511a.104.104 0 0 0 0-.143Z"/></svg>
